!!!COM:	Bach, Johann Sebastian
!!!CDT:	1685/02/21/-1750/07/28/
!!!OTL@@DE:	Jesu Leiden, Pein und Tod
!!!SCT:	BWV 245/14
!!!PC#:	83
!!!AGN:	chorale
**kern	**kern	**kern	**kern
*ICvox	*ICvox	*ICvox	*ICvox
*Ibass	*Itenor	*Ialto	*Isoprn
*I"Bass	*I"Tenor	*I"Alto	*I"Soprano
*clefF4	*clefGv2	*clefG2	*clefG2
*k[f#c#g#]	*k[f#c#g#]	*k[f#c#g#]	*k[f#c#g#]
*A:	*A:	*A:	*A:
*M4/4	*M4/4	*M4/4	*M4/4
*met(c)	*met(c)	*met(c)	*met(c)
*MM100	*MM100	*MM100	*MM100
=1-	=1-	=1-	=1-
4F#	4f#	4a	4cc#
4E#	4c#	4g#	4b
4F#	4c#	4f#	4a
4G#	4B	4enX	4b
=2	=2	=2	=2
4A	4A	4e	4cc#
4F#	4A	4f#	4dd
2C#;	2A;	2g;	2ee;
=3	=3	=3	=3
4D	4d	4f#	4ff#
4E	4c#	4g#X	4ee
8F#L	8c#L	8aL	4dd
8G#J	8BJ	8bJ	.
4A	8c#L	8eL	8cc#L
.	8dJ	8aJ	8bJ
=4	=4	=4	=4
2E	4e	4a	2b
.	8dL	4g#	.
.	8c#J	.	.
2AA;	2c#;	2e;	2a;
=5	=5	=5	=5
4A	4e	4a	4cc#
4G#	4e	4b	4ee
8F#L	4f#	4a	4dd
8G#J	.	.	.
4A	4e	4a	4cc#
=6	=6	=6	=6
4E#	4d	4g#	4b
4F#	4c#	4f#	4a
2C#;	2c#;	2e#;	2g#;
=7	=7	=7	=7
4F#	4c#	4f#	4a
4G#	4B	4enX	4b
4A	8AL	4e	4cc#
.	8BJ	.	.
4A#	4c#	4f#	8cc#L
.	.	.	16ddL
.	.	.	16eeJJ
=8	=8	=8	=8
2B	4c#	8f#L	2dd
.	.	8aJ	.
.	8BL	8g#L	.
.	8AnXJ	8f#J	.
2E#;	2B;	2g#;	2cc#;
=9	=9	=9	=9
8F#L	4A	4f#	8cc#L
8G#	.	.	8bJ
8A	4a	4f#	8cc#L
8BJ	.	.	8ddJ
4c#	4g#	8c#L	4ee
.	.	8g#J	.
8F#L	4f#	8aL	4dd
8G#J	.	8bJ	.
=10	=10	=10	=10
4A	4e	4a	4cc#
4E	4e	4g#	4b
2AA;	2e;	2a;	2cc#;
=11	=11	=11	=11
4A	4d#	4f#	4b
4G#	4e	4e	4b
4G	8eL	4a	8cc#L
.	8f#J	.	8dd#J
8F#L	4gnX	4b	4ee
8EJ	.	.	.
=12	=12	=12	=12
4AA#	4f#	4cc#	4ee
4BB	4B	8bL	4dd#
.	.	8aJ	.
2EE;	2B;	2g#;	2ee;
=13	=13	=13	=13
4C#	4c#	4g#	4ee
4F#	4c#	4a	4cc#
4D	4c	4a	4.ff#
4G	8BL	4g	.
.	8A#J	.	8ee
=14	=14	=14	=14
4E	4B	8gL	4dd
.	.	8f#J	.
4F#	4A#	4e	8cc#L
.	.	.	8bJ
2BB;	2B;	2d;	2b;
=15	=15	=15	=15
8F#L	4A	4f#	4cc#
8E	.	.	.
8D	4A	8eL	8cc#L
8C#J	.	8f#J	16ddL
.	.	.	16eeJJ
4BB	4B	4g#	4dd
8C#L	4E	4a	8cc#L
8DJ	.	.	8bJ
=16	=16	=16	=16
2E	4e	8aL	2b
.	.	8f#J	.
.	16dLL	4g#	.
.	16c#J	.	.
.	8dJ	.	.
2AA;	2c#;	2e;	2a;
==	==	==	==
*-	*-	*-	*-
!!!hum2abc: -Q ''
!!!title: @{PC#}. @{OTL@@DE}
!!!YOR1: 371 vierstimmige Choralges&auml;nge von Johann Sebastian Bach, 
!!!YOR2: 4th ed. by Alfred D&ouml;rffel (Leipzig: Breitkopf und H&auml;rtel, 
!!!YOR2: c.1875). 178 pp. Plate "V.A.10".  reprint: J.S. Bach, 371 Four-Part 
!!!YOR4: Chorales (New York: Associated Music Publishers, Inc., c.1940).
!!!SMS: B&H, 4th ed, Alfred D&ouml;rffel, c.1875, plate V.A.10
!!!EED:  Craig Stuart Sapp
!!!EEV:  2009/05/22
